packages/sources/icons/src/vitamix/star-line.svg

<svg width="16" height="16" viewBox="0 0 16 16" xmlns="http://www.w3.org/2000/svg"><path fill-rule="evenodd" clip-rule="evenodd" d="M3.29802 14.8053L8.00002 12.1733L12.702 14.8053L11.652 9.51998L15.6087 5.86131L10.2574 5.22665L8.00002 0.333313L5.74269 5.22665L0.391357 5.86131L4.34802 9.51998L3.29802 14.8053ZM10.8314 12.23L8.00003 10.6453L5.16869 12.23L5.80136 9.04801L3.41936 6.84468L6.64136 6.46335L8.00003 3.51668L9.35869 6.46268L12.5807 6.84468L10.1987 9.04801L10.8314 12.23Z"/></svg>

<svg width="16" height="16" xmlns="http://www.w3.org/2000/svg"><path fill-rule="evenodd" clip-rule="evenodd" d="M3.298 14.805 8 12.173l4.702 2.632-1.05-5.285 3.957-3.659-5.352-.634L8 .333 5.743 5.227.39 5.86 4.348 9.52l-1.05 5.285Zm7.533-2.575L8 10.645 5.169 12.23 5.8 9.048 3.42 6.845l3.222-.382L8 3.517l1.359 2.946 3.222.382-2.382 2.203.632 3.182Z"/></svg>
